X:170
T:Brockett Hall. THO5.170
M:C|
L:1/8
B:Thompson's Complete Collection of 200 Favourite Dances Vol.5
F:https://www.libraryofdance.org/manuals/1780c-Thompson-Compleat-5.pdf
Z:vmp. Peter Dunk 2024
U:w=!wedge!
Q:1/4=140
K:D
d3e d2d2|B2d2A2d2|G2d2F2d2|EGAG F2D2|\\
d3e d2A2|T(BABc)B2 g2|f2e2d2c2|d4-d4:|
A3b a2f2|e2a2d2a2|c2a2 e2c2|(Bcdc) B2 Bc|\\
d2 f4 ed|c2 a4 e2|(e2d2)wB2w^G2|(AB)wcwd (ef)wgwe|
d3e d2d2|B2d2A2d2|G2d2F2d2|EGAG F2D2|\\
d3e d2A2|T(BABc) B2g2|f2e2d2c2|d4-d4|]
W:
W:The 1st Gent swing the 2nd Lady with his
W:right hand & then his Partner with his left ./.
W:the 1st Lady do the same ./:
W:lead down the middle, up again and cast off :/.
W:hands 6 round :/:

